flaticon/social-media/snapchat.svg

<svg xmlns="http://www.w3.org/2000/svg" width="32" height="32" viewBox="0 0 24 24">
    <path d="M 23.441406 17.628906 C 20.40625 17.113281 19.046875 14.078125 18.886719 13.71875 L 18.886719 13.675781 C 18.730469 13.359375 18.6875 13.117188 18.769531 12.917969 C 18.929688 12.558594 19.605469 12.320312 20.046875 12.199219 C 20.167969 12.160156 20.285156 12.121094 20.367188 12.078125 C 21.203125 11.71875 21.644531 11.28125 21.644531 10.761719 C 21.644531 10.363281 21.324219 9.964844 20.84375 9.804688 C 20.6875 9.722656 20.484375 9.683594 20.285156 9.683594 C 20.167969 9.683594 19.964844 9.722656 19.765625 9.804688 C 19.367188 9.964844 19.046875 10.082031 18.808594 10.082031 C 18.730469 10.082031 18.648438 10.082031 18.570312 10.042969 C 18.609375 9.921875 18.609375 9.804688 18.609375 9.644531 L 18.609375 9.5625 C 18.6875 7.925781 18.847656 5.890625 18.289062 4.691406 C 16.652344 1.097656 13.257812 0.820312 12.257812 0.820312 L 11.78125 0.820312 C 10.78125 0.820312 7.386719 1.097656 5.789062 4.691406 C 5.230469 5.890625 5.351562 7.925781 5.472656 9.5625 C 5.511719 9.722656 5.511719 9.882812 5.511719 10.042969 C 5.429688 10.042969 5.3125 10.082031 5.191406 10.082031 C 4.871094 10.082031 4.550781 10.003906 4.152344 9.804688 C 3.59375 9.5625 2.515625 9.921875 2.394531 10.640625 C 2.316406 11.042969 2.476562 11.601562 3.675781 12.078125 C 3.753906 12.121094 3.875 12.160156 4.035156 12.199219 C 4.433594 12.320312 5.113281 12.558594 5.269531 12.917969 C 5.351562 13.078125 5.3125 13.359375 5.152344 13.675781 C 5.070312 13.796875 3.675781 17.03125 0.519531 17.550781 C 0.199219 17.628906 0 17.910156 0 18.230469 C 0 18.347656 0.0390625 18.429688 0.078125 18.507812 C 0.320312 19.148438 1.359375 19.546875 3.234375 19.867188 C 3.273438 19.988281 3.316406 20.226562 3.355469 20.347656 C 3.394531 20.503906 3.433594 20.707031 3.472656 20.90625 C 3.515625 21.105469 3.714844 21.425781 4.191406 21.425781 C 4.351562 21.425781 4.550781 21.382812 4.753906 21.34375 C 5.070312 21.265625 5.472656 21.183594 5.988281 21.183594 C 6.308594 21.183594 6.589844 21.222656 6.910156 21.304688 C 7.46875 21.382812 7.988281 21.742188 8.546875 22.144531 C 9.382812 22.742188 10.144531 23.179688 11.699219 23.179688 C 11.742188 23.179688 11.78125 23.179688 11.820312 23.179688 C 11.859375 23.179688 11.941406 23.179688 11.980469 23.179688 C 13.335938 23.179688 14.535156 22.820312 15.574219 22.144531 C 16.132812 21.785156 16.652344 21.382812 17.210938 21.304688 C 17.492188 21.265625 17.808594 21.222656 18.089844 21.222656 C 18.570312 21.222656 18.96875 21.265625 19.328125 21.34375 C 19.566406 21.382812 19.765625 21.425781 19.925781 21.425781 C 20.246094 21.425781 20.527344 21.222656 20.605469 20.90625 C 20.644531 20.707031 20.6875 20.546875 20.726562 20.347656 C 20.765625 20.265625 20.804688 20.027344 20.84375 19.90625 C 22.722656 19.628906 23.640625 19.1875 23.921875 18.589844 C 23.960938 18.507812 24 18.390625 24 18.308594 C 24 17.988281 23.761719 17.671875 23.441406 17.628906 Z M 20.605469 19.109375 C 20.125 19.148438 20.046875 19.628906 19.925781 20.144531 C 19.886719 20.265625 19.847656 20.425781 19.808594 20.585938 C 19.726562 20.585938 19.605469 20.585938 19.40625 20.546875 C 19.007812 20.464844 18.570312 20.386719 18.011719 20.386719 C 17.691406 20.386719 17.371094 20.425781 17.011719 20.464844 C 16.292969 20.585938 15.652344 21.023438 15.054688 21.464844 C 14.175781 22.101562 13.179688 22.382812 11.980469 22.382812 C 11.941406 22.382812 11.898438 22.382812 11.820312 22.382812 C 11.808594 22.382812 11.800781 22.382812 11.789062 22.382812 C 11.785156 22.382812 11.785156 22.382812 11.78125 22.382812 C 10.460938 22.382812 9.824219 21.984375 9.066406 21.464844 C 8.464844 21.023438 7.867188 20.585938 7.109375 20.464844 C 6.789062 20.425781 6.429688 20.386719 6.109375 20.386719 C 5.511719 20.386719 5.03125 20.464844 4.710938 20.546875 C 4.550781 20.585938 4.433594 20.625 4.3125 20.625 C 4.273438 20.464844 4.234375 20.304688 4.191406 20.144531 C 4.074219 19.628906 3.992188 19.148438 3.515625 19.066406 C 1.757812 18.828125 1.15625 18.46875 0.957031 18.308594 C 4.234375 17.628906 5.75 14.4375 5.949219 13.996094 C 6.191406 13.476562 6.230469 13 6.070312 12.597656 C 5.75 11.878906 4.871094 11.601562 4.3125 11.441406 C 4.191406 11.441406 4.113281 11.402344 4.035156 11.359375 C 3.355469 11.082031 3.234375 10.84375 3.234375 10.800781 C 3.234375 10.683594 3.515625 10.523438 3.753906 10.523438 C 3.832031 10.523438 3.875 10.523438 3.875 10.523438 C 4.351562 10.761719 4.832031 10.882812 5.230469 10.882812 C 5.832031 10.882812 6.148438 10.601562 6.230469 10.523438 C 6.308594 10.441406 6.347656 10.363281 6.347656 10.242188 C 6.347656 10.003906 6.308594 9.765625 6.308594 9.523438 C 6.191406 7.964844 6.070312 6.050781 6.550781 5.011719 C 7.945312 1.855469 10.941406 1.617188 11.820312 1.617188 L 12.257812 1.617188 C 13.136719 1.617188 16.132812 1.855469 17.570312 4.933594 C 18.011719 5.96875 17.890625 7.886719 17.808594 9.445312 L 17.808594 9.523438 C 17.808594 9.765625 17.769531 9.964844 17.769531 10.164062 C 17.769531 10.28125 17.808594 10.402344 17.890625 10.484375 C 17.96875 10.5625 18.25 10.800781 18.847656 10.84375 C 19.246094 10.800781 19.648438 10.683594 20.125 10.484375 C 20.207031 10.441406 20.40625 10.441406 20.566406 10.523438 C 20.765625 10.601562 20.84375 10.722656 20.84375 10.761719 C 20.84375 10.84375 20.683594 11.082031 20.046875 11.320312 C 19.964844 11.359375 19.847656 11.402344 19.726562 11.441406 C 19.207031 11.601562 18.328125 11.878906 18.011719 12.597656 C 17.808594 13 17.890625 13.476562 18.128906 13.996094 C 18.289062 14.394531 19.765625 17.671875 23.082031 18.347656 C 22.882812 18.507812 22.324219 18.828125 20.605469 19.109375 Z M 20.605469 19.109375"/>
</svg>

<svg xmlns="http://www.w3.org/2000/svg" width="32" height="32" viewBox="0 0 24 24">
    <path d="M23.441 17.629c-3.035-.516-4.394-3.55-4.554-3.91v-.043c-.157-.317-.2-.559-.117-.758.16-.36.835-.598 1.277-.719.121-.039.238-.078.32-.12.836-.36 1.278-.798 1.278-1.317 0-.399-.32-.797-.801-.957a1.235 1.235 0 0 0-.559-.121c-.117 0-.32.039-.52.12-.398.16-.718.278-.956.278-.079 0-.16 0-.239-.039.04-.121.04-.238.04-.398v-.082c.078-1.637.238-3.672-.32-4.872-1.638-3.593-5.032-3.87-6.032-3.87h-.477c-1 0-4.394.277-5.992 3.87-.559 1.2-.437 3.235-.316 4.872.039.16.039.32.039.48-.082 0-.2.039-.32.039-.32 0-.641-.078-1.04-.277-.558-.242-1.636.117-1.757.836-.079.402.082.96 1.28 1.437.079.043.2.082.36.121.399.121 1.078.36 1.235.719.082.16.043.441-.118.758-.082.12-1.476 3.355-4.632 3.875a.683.683 0 0 0-.52.68c0 .117.04.199.078.277.242.64 1.281 1.039 3.156 1.36.04.12.082.359.121.48.04.156.079.359.118.558.043.2.242.52.718.52.16 0 .36-.043.563-.082.316-.078.719-.16 1.234-.16.32 0 .602.039.922.12.559.079 1.078.438 1.637.84.836.598 1.598 1.036 3.152 1.036h.281c1.356 0 2.555-.36 3.594-1.035.559-.36 1.078-.762 1.637-.84.281-.04.598-.082.879-.082.48 0 .879.043 1.238.12.238.04.438.083.598.083.32 0 .601-.203.68-.52.039-.199.081-.36.12-.558.04-.082.079-.32.118-.442 1.879-.277 2.797-.718 3.078-1.316.039-.082.078-.2.078-.281 0-.32-.238-.637-.559-.68zm-2.836 1.48c-.48.04-.558.52-.68 1.036-.038.12-.077.28-.116.44-.082 0-.204 0-.403-.038a6.56 6.56 0 0 0-1.394-.16c-.32 0-.64.039-1 .078-.719.12-1.36.558-1.957 1-.88.637-1.875.918-3.075.918h-.199c-1.32 0-1.957-.399-2.715-.918-.601-.442-1.199-.88-1.957-1-.32-.04-.68-.078-1-.078-.597 0-1.078.078-1.398.16-.16.039-.277.078-.399.078-.039-.16-.078-.32-.12-.48-.118-.516-.2-.997-.676-1.079-1.758-.238-2.36-.597-2.559-.757 3.277-.68 4.793-3.872 4.992-4.313.242-.52.281-.996.121-1.398-.32-.72-1.199-.996-1.758-1.157a.53.53 0 0 1-.277-.082c-.68-.277-.8-.515-.8-.558 0-.117.28-.278.519-.278h.121c.477.239.957.36 1.355.36.602 0 .918-.281 1-.36a.371.371 0 0 0 .118-.28c0-.24-.04-.477-.04-.72-.117-1.558-.238-3.472.243-4.511 1.394-3.157 4.39-3.395 5.27-3.395h.437c.879 0 3.875.238 5.312 3.317.442 1.035.32 2.953.239 4.511v.078c0 .243-.04.442-.04.641 0 .117.04.238.122.32.078.079.359.317.957.36.398-.043.8-.16 1.277-.36.082-.043.281-.043.441.04.2.078.278.199.278.238 0 .082-.16.32-.797.558-.082.04-.2.082-.32.121-.52.16-1.399.438-1.715 1.157-.203.402-.121.879.117 1.398.16.399 1.637 3.676 4.953 4.352-.2.16-.758.48-2.477.761zm0 0"/>
</svg>
